icons/icon_card-visa_xl_white.svg

<svg xmlns="http://www.w3.org/2000/svg" width="32" height="10" viewBox="0 0 32 10"><path fill="#FFF" d="M11.435 9.834h2.515L15.523.173h-2.516l-1.572 9.661zM25.61 8.399h3.197l.295 1.435h2.309L29.398.173h-2.022c-.934 0-1.161.72-1.161.72l-3.751 8.941h2.621l.525-1.435zm2.046-5.598l.743 3.615h-2.065l1.322-3.615zM15.874 7.285L15.5 9.454s1.123.546 2.839.546 4.306-.889 4.306-3.307c0-2.512-3.51-2.746-3.51-3.838s2.449-.952 3.526-.359L23.02.421S21.912 0 20.758 0c-1.248 0-4.212.546-4.212 3.198 0 2.496 3.479 2.527 3.479 3.838s-3.121 1.076-4.151.249zM5.792 1.043S5.69.173 4.599.173H.635L.589.337l.064.015.061.016c.037.009.087.023.14.038L.969.44c.062.018.135.042.21.067l.149.049c.114.039.241.087.375.139l.149.061c.132.054.271.115.416.182.066.031.137.067.205.101.204.101.404.208.601.322.049.028.099.062.148.091l2.183 8.383h2.62L12.027.174H9.32L6.922 6.819l-.284-1.431-.846-4.345z"/></svg>

<?xml version="1.0" encoding="UTF-8"?>
<svg width="32px" height="10px" viewBox="0 0 32 10" version="1.1" xmlns="http://www.w3.org/2000/svg" xmlns:xlink="http://www.w3.org/1999/xlink">
    <!-- Generator: Sketch 46.2 (44496) - http://www.bohemiancoding.com/sketch -->
    <title>icon_card-visa_xl_black</title>
    <desc>Created with Sketch.</desc>
    <defs></defs>
    <g id="Page-1" stroke="none" stroke-width="1" fill="none" fill-rule="evenodd">
        <g id="icon_card-visa_xl_black" fill-rule="nonzero" fill="#FFFFFF">
            <path d="M11.435,9.834 L13.95,9.834 L15.523,0.173 L13.007,0.173 L11.435,9.834 Z M25.61,8.399 L28.807,8.399 L29.102,9.834 L31.411,9.834 L29.398,0.173 L27.376,0.173 C26.442,0.173 26.215,0.893 26.215,0.893 L22.464,9.834 L25.085,9.834 L25.61,8.399 L25.61,8.399 Z M27.656,2.801 L28.399,6.416 L26.334,6.416 L27.656,2.801 L27.656,2.801 Z M15.874,7.285 L15.5,9.454 C15.5,9.454 16.623,10 18.339,10 C20.055,10 22.645,9.111 22.645,6.693 C22.645,4.181 19.135,3.947 19.135,2.855 C19.135,1.763 21.584,1.903 22.661,2.496 L23.02,0.421 C23.02,0.421 21.912,0 20.758,0 C19.51,0 16.546,0.546 16.546,3.198 C16.546,5.694 20.025,5.725 20.025,7.036 C20.025,8.347 16.904,8.112 15.874,7.285 L15.874,7.285 Z M5.792,1.043 C5.792,1.043 5.69,0.173 4.599,0.173 L0.635,0.173 L0.589,0.337 L0.653,0.352 L0.714,0.368 C0.751,0.377 0.801,0.391 0.854,0.406 L0.969,0.44 C1.031,0.458 1.104,0.482 1.179,0.507 L1.328,0.556 C1.442,0.595 1.569,0.643 1.703,0.695 L1.852,0.756 C1.984,0.81 2.123,0.871 2.268,0.938 C2.334,0.969 2.405,1.005 2.473,1.039 C2.67665716,1.1400107 2.87708944,1.24739704 3.074,1.361 C3.123,1.389 3.173,1.423 3.222,1.452 L5.405,9.835 L8.025,9.835 L12.027,0.174 L9.32,0.174 L6.922,6.819 L6.638,5.388 L5.792,1.043 L5.792,1.043 Z" id="Shape"></path>
        </g>
    </g>
</svg>
